!!!COM:	Praetorius, Michael
!!!OTL:	Weil Maria schwanger ging
**kern	**kern	**kern	**kern
*ICvox	*ICvox	*ICvox	*ICvox
*I"Bassus	*I"Tenor	*I"Altus	*I"Diskantus
*clefF4	*clefGv2	*clefG2	*clefG2
*k[b-]	*k[b-]	*k[b-]	*k[b-]
*M2/2	*M2/2	*M2/2	*M2/2
!!Meter Interpreted, Nat Condit-Schultz, 2018, Rule 2
*met(c)	*met(c)	*met(c)	*met(c)
2F	2A	2c	2f
2D	2A	2d	2f
2G	2B-	2d	2g
2F	2c	2f	2a
2BB-	2d	4g	2b-
.	.	2f	.
2C	2c	.	2g
.	.	4e	.
1FF	1A	1c	1f
=	=	=	=
2C	2G	2e	2g
2GG	2B-	1d	2g
2BB-	2F	.	2d
2C	2c	2G	2e
4D	4A	2d	1f
4BB-	2B-	.	.
2F	.	2c	.
.	4A	.	.
1BB-	1B-	1d	1f
=	=	=	=
2F	2A	2c	2f
2D	2A	2d	2f
2C	2c	2e	2g
2AA	2c	2f	2a
2GG	2d	2g	2b-
2C	2c	2e	2g
1D	1A	1d	1f
=	=	=	=
2C	2c	2e	2g
2GG	2B-	1d	2g
2BB-	2F	.	2d
2C	2c	2G	2e
4AA	2c	2A	1f
4FF	.	.	.
2BB-	2B-	2d	.
1F	1A	1c	1f
=	=	=	=
2F	2A	2c	2cc
2C	2G	2e	2cc
2G	2B-	2d	2dd
2E	2G	2g	2cc
2F	2A	2c	2a
2D	2F	2d	2b-
1C	1G	1e	1cc
=	=	=	=
2F	2A	2f	2cc
2E	2G	2g	2cc
2D	2A	2f	2dd
2AA	2A	2e	2cc
8DL	4.A	2f	2a
8EJ	.	.	.
4F	.	.	.
.	8B-	.	.
2C	4c	4e	2g
.	4B-	4d	.
1FF	1A	1c	1f
=	=	=	=
2BB-	2B-	2F	2d
2C	2G	2c	2e
2AA	2F	2c	2f
2BB-	2F	2B-	2d
8FFL	4F	2A	(2c
8GGJ	.	.	.
4AA	4E	.	.
2GG	2G	2Bn	2d)
1C	1E	1c	1c
=	=	=	=
2BB-	2F	2d	2f
2AA	2F	2c	2f
2GG	2B-	2d	2g
2D	2A	2f	2a
2BB-	2d	2f	2b-
2C	2c	2e	2g
1D	1A	1d	1f
=	=	=	=
2GG	2B-	2d	2g
2AA	2A	2c	2f
2BB-	2F	2B-	2d
2C	2c	2G	2e
2D	2A	2d	2f
2BB-	2D	2G	2d
1AA	1E	1A	1c
=	=	=	=
2D	2F	2A	2d
2AA	2E	2A	2c
2BB-	2D	2F	2d
2GG	2G	2B-	2e
2FF	8AL	1c	(2f
.	8GJ	.	.
.	2F	.	.
2C	.	.	2g)
.	4E	.	.
00FF	2.F	00c	00f
.	4G	.	.
.	0.A	.	.
==	==	==	==
*-	*-	*-	*-
